dist/img/partners/partner_2.svg

<svg width="167" height="70" viewBox="0 0 167 70" fill="none" xmlns="http://www.w3.org/2000/svg">
<g clip-path="url(#clip0_306_3406)">
<path d="M135.196 21.2334C137.362 21.2334 139.042 19.5108 139.042 17.3466C139.042 15.2265 137.362 13.5039 135.196 13.5039C133.074 13.5039 131.306 15.2265 131.306 17.3466C131.262 19.5108 133.074 21.2334 135.196 21.2334Z" fill="#2C3242"/>
<path d="M102.044 23.9276H107.834V27.4611C109.293 25.341 112.52 23.3976 116.321 23.3976C123.526 23.3976 129.008 29.537 129.008 37.0898C129.008 44.5985 123.526 50.7819 116.321 50.7819C112.52 50.7819 109.337 48.8386 107.834 46.7185V61.2499H102.044V23.9276ZM115.26 28.6536C110.575 28.6536 107.348 32.3195 107.348 37.0898C107.348 41.8158 110.575 45.5259 115.26 45.5259C119.902 45.5259 123.129 41.86 123.129 37.0898C123.129 32.3637 119.902 28.6536 115.26 28.6536Z" fill="#2C3242"/>
<path d="M142.357 23.9276H148.148V27.5052C149.739 24.8551 152.745 23.3976 156.149 23.3976C162.248 23.3976 166.227 27.7261 166.227 34.3955V50.252H160.436V35.3672C160.436 31.2154 158.314 28.6978 154.955 28.6978C151.109 28.6978 148.148 31.7013 148.148 37.3105V50.252H142.357V23.9276Z" fill="#2C3242"/>
<path d="M57.9283 23.3976C54.5247 23.3976 51.5188 24.8551 49.9275 27.5052V13.5038H44.1367V50.252H49.9275V37.3106C49.9275 31.7012 52.889 28.6977 56.7347 28.6977C60.0942 28.6977 62.2159 31.2154 62.2159 35.3673V50.252H68.0067V34.3956C67.9625 27.7261 64.0283 23.3976 57.9283 23.3976Z" fill="#2C3242"/>
<path d="M138.025 23.9277H132.235V50.2521H138.025V23.9277Z" fill="#2C3242"/>
<path d="M85.0254 50.782C77.2456 50.782 71.2338 44.731 71.2338 37.0898C71.2338 29.4486 77.2456 23.3976 85.0254 23.3976C92.8052 23.3976 98.8168 29.4486 98.8168 37.0898C98.8168 44.731 92.8052 50.782 85.0254 50.782ZM85.0254 45.3935C89.6668 45.3935 92.9377 41.7716 92.9377 37.0898C92.9377 32.408 89.6668 28.7862 85.0254 28.7862C80.3398 28.7862 77.0687 32.408 77.0687 37.0898C77.0687 41.7716 80.3398 45.3935 85.0254 45.3935Z" fill="#2C3242"/>
<path d="M23.0482 20.5434C23.0041 22.3034 21.769 24.8113 19.6957 24.8113C18.4164 24.8113 17.3578 23.7553 17.3578 22.4794V22.4354C17.3136 20.3674 16.3873 18.5635 14.9316 17.2875C13.8288 16.3636 12.4613 15.7476 10.9615 15.5716C12.2407 14.2516 14.0493 13.4597 16.0344 13.4597C18.5488 13.4597 20.8426 14.9116 22.166 17.0235C22.7835 18.0795 23.0923 19.3555 23.0482 20.5434Z" fill="#175FFF"/>
<path d="M14.8436 20.7194C15.9463 22.1273 16.6081 24.8112 15.0201 26.1312C14.0054 26.9672 12.5497 26.8352 11.7116 25.8672C10.3441 24.3272 8.44729 23.5353 6.55046 23.4913C5.09476 23.4473 3.63905 23.8873 2.40391 24.7232C2.53625 22.9193 3.37438 21.1154 4.9183 19.8394C6.90335 18.2114 9.68243 17.7275 12.0645 18.6954C13.1673 19.0914 14.1378 19.7954 14.8436 20.7194Z" fill="#175FFF"/>
<path d="M8.66773 26.0874C10.3881 26.4394 12.682 28.1114 12.3291 30.1353C12.1085 31.4112 10.8734 32.2473 9.59409 32.0272H9.54998C7.52081 31.7192 5.53576 32.3352 4.08006 33.5232C2.97725 34.4031 2.09501 35.6792 1.69799 37.1311C0.639296 35.6351 0.154061 33.7432 0.462848 31.7633C0.948082 29.2552 2.75669 27.1434 5.22698 26.3074C6.32978 25.9554 7.56493 25.8674 8.66773 26.0874Z" fill="#175FFF"/>
<path d="M7.38846 34.1829C8.93239 33.3471 11.7556 33.171 12.7702 34.931C13.4318 36.0309 13.0348 37.4828 11.932 38.1429C10.1675 39.1988 9.06472 40.9147 8.66771 42.8066C8.40304 44.2146 8.53537 45.7105 9.19705 47.0746C7.43256 46.6345 5.80041 45.4907 4.82995 43.7747C3.55069 41.5307 3.59479 38.7589 4.91817 36.559C5.53574 35.547 6.37388 34.711 7.38846 34.1829Z" fill="#175FFF"/>
<path d="M11.6229 41.1788C12.2846 39.5508 14.3138 37.6149 16.2106 38.3188C17.4458 38.7589 18.0634 40.1228 17.6222 41.3109C16.9604 43.2467 17.2252 45.2707 18.1516 46.9427C18.8574 48.2186 19.916 49.2306 21.2836 49.8905C19.6072 50.6825 17.6662 50.8586 15.8136 50.1546C13.3874 49.2745 11.6229 47.1187 11.2259 44.5667C11.0936 43.4228 11.2259 42.2347 11.6229 41.1788Z" fill="#175FFF"/>
<path d="M19.3869 43.8185C18.8135 42.1466 19.1223 39.3746 21.0632 38.6706C22.2983 38.2307 23.6217 38.8467 24.0629 40.0786C24.8127 41.9706 26.3125 43.3786 28.1211 44.0826C29.4445 44.6104 30.9885 44.6984 32.4441 44.3465C31.6943 46.0184 30.2827 47.3824 28.4299 48.0864C26.0037 48.9663 23.2247 48.4383 21.3279 46.7224C20.4457 45.8865 19.7399 44.9184 19.3869 43.8185Z" fill="#175FFF"/>
<path d="M27.0623 40.8709C25.5625 39.9469 23.9745 37.615 25.0331 35.8551C25.6949 34.7551 27.1065 34.3591 28.2533 34.9752C30.0619 35.9431 32.0911 36.0751 33.9439 35.4591C35.3113 34.9751 36.5465 34.0951 37.4287 32.8632C37.9139 34.6231 37.7375 36.5591 36.7229 38.275C35.4437 40.5189 32.9733 41.8829 30.4149 41.7949C29.1797 41.7949 27.9887 41.4869 27.0623 40.8709Z" fill="#175FFF"/>
<path d="M31.0325 33.6988C29.268 33.9629 26.5771 33.1708 26.2243 31.147C25.9596 29.915 26.8418 28.683 28.1211 28.463H28.1652C30.1943 28.0671 31.8265 26.8351 32.7969 25.2072C33.5469 23.9752 33.8997 22.5232 33.7675 21.0273C35.2673 22.0393 36.4141 23.6672 36.7229 25.6031C37.1641 28.1111 36.1495 30.751 34.1645 32.3349C33.2381 33.0389 32.1353 33.5669 31.0325 33.6988Z" fill="#175FFF"/>
<path d="M29.4445 25.6914C28.2535 27.0113 25.6949 28.1553 24.1069 26.8353C23.0923 25.9994 22.96 24.5474 23.7981 23.5354C25.0773 21.9515 25.5626 19.9276 25.2538 18.0356C25.0333 16.6277 24.3715 15.2637 23.3129 14.1637C25.1215 13.9878 27.0183 14.5157 28.5623 15.7917C30.5473 17.4196 31.4737 20.1036 30.9443 22.6115C30.7237 23.7554 30.1943 24.8554 29.4445 25.6914Z" fill="#175FFF"/>
</g>
<defs>
<clipPath id="clip0_306_3406">
<rect width="167" height="70" fill="white"/>
</clipPath>
</defs>
</svg>

<svg width="167" height="70" viewBox="0 0 167 70" fill="none" xmlns="http://www.w3.org/2000/svg"><g clip-path="url(#clip0_306_3406)"><path d="M135.196 21.233c2.166 0 3.846-1.722 3.846-3.886a3.82 3.82 0 00-3.846-3.843c-2.122 0-3.89 1.723-3.89 3.843-.044 2.164 1.768 3.886 3.89 3.886zm-33.152 2.695h5.79v3.533c1.459-2.12 4.686-4.063 8.487-4.063 7.205 0 12.687 6.139 12.687 13.692 0 7.508-5.482 13.692-12.687 13.692-3.801 0-6.984-1.943-8.487-4.063v14.53h-5.79v-37.32zm13.216 4.726c-4.685 0-7.912 3.665-7.912 8.436 0 4.726 3.227 8.436 7.912 8.436 4.642 0 7.869-3.666 7.869-8.436 0-4.726-3.227-8.436-7.869-8.436zm27.097-4.726h5.791v3.577c1.591-2.65 4.597-4.107 8.001-4.107 6.099 0 10.078 4.328 10.078 10.997v15.857h-5.791V35.367c0-4.152-2.122-6.67-5.481-6.67-3.846 0-6.807 3.004-6.807 8.613v12.942h-5.791V23.928zm-84.429-.53c-3.403 0-6.41 1.457-8 4.107V13.504h-5.791v36.748h5.79V37.311c0-5.61 2.962-8.613 6.808-8.613 3.36 0 5.48 2.517 5.48 6.67v14.884h5.792V34.396c-.044-6.67-3.979-10.998-10.079-10.998zm80.097.53h-5.79v26.324h5.79V23.928zm-53 26.854c-7.78 0-13.791-6.051-13.791-13.692s6.012-13.692 13.791-13.692c7.78 0 13.792 6.05 13.792 13.692 0 7.641-6.012 13.692-13.792 13.692zm0-5.388c4.642 0 7.913-3.622 7.913-8.304s-3.271-8.304-7.913-8.304c-4.685 0-7.956 3.622-7.956 8.304s3.27 8.303 7.956 8.303z" fill="#2C3242"/><path d="M23.048 20.543c-.044 1.76-1.279 4.268-3.352 4.268a2.35 2.35 0 01-2.338-2.332v-.044c-.044-2.068-.97-3.871-2.426-5.147a7.545 7.545 0 00-3.97-1.716c1.279-1.32 3.087-2.112 5.072-2.112 2.515 0 4.809 1.452 6.132 3.563a6.64 6.64 0 01.882 3.52zm-8.204.177c1.102 1.407 1.764 4.091.176 5.411a2.366 2.366 0 01-3.308-.264 7.103 7.103 0 00-5.162-2.376c-1.455-.044-2.91.396-4.146 1.232a6.997 6.997 0 012.514-4.884c1.985-1.628 4.764-2.111 7.147-1.144a6.089 6.089 0 012.779 2.024zm-6.176 5.367c1.72.352 4.014 2.024 3.661 4.048-.22 1.276-1.456 2.112-2.735 1.892H9.55a7.02 7.02 0 00-5.47 1.496 7.059 7.059 0 00-2.382 3.608C.639 35.635.154 33.743.463 31.763a7.225 7.225 0 014.764-5.456c1.103-.352 2.338-.44 3.44-.22zm-1.28 8.096c1.544-.836 4.368-1.012 5.382.748.662 1.1.265 2.552-.838 3.212-1.764 1.056-2.867 2.772-3.264 4.664-.265 1.408-.133 2.904.53 4.268-1.765-.44-3.398-1.584-4.368-3.3a7.157 7.157 0 01.088-7.216c.618-1.012 1.456-1.848 2.47-2.376zm4.235 6.996c.662-1.628 2.69-3.564 4.588-2.86a2.332 2.332 0 011.411 2.992c-.662 1.936-.397 3.96.53 5.632a7.004 7.004 0 003.132 2.948c-1.677.791-3.618.968-5.47.264a7.12 7.12 0 01-4.588-5.588 7.337 7.337 0 01.397-3.388zm7.764 2.64c-.573-1.672-.265-4.444 1.676-5.148 1.235-.44 2.559.176 3 1.408.75 1.892 2.25 3.3 4.058 4.004 1.324.527 2.867.615 4.323.264-.75 1.671-2.161 3.035-4.014 3.74-2.426.88-5.205.351-7.102-1.365-.882-.836-1.588-1.804-1.941-2.904zm7.675-2.949c-1.5-.923-3.088-3.255-2.029-5.015a2.417 2.417 0 013.22-.88 7.168 7.168 0 005.69.484 7.241 7.241 0 003.486-2.596c.485 1.76.308 3.696-.706 5.412a7.038 7.038 0 01-6.308 3.52c-1.235 0-2.426-.308-3.353-.924zm3.97-7.171c-1.764.264-4.455-.528-4.808-2.552-.264-1.232.618-2.464 1.897-2.684h.044a6.91 6.91 0 004.632-3.256 6.85 6.85 0 00.97-4.18c1.5 1.012 2.647 2.64 2.956 4.576.441 2.508-.573 5.148-2.559 6.732-.926.704-2.029 1.232-3.132 1.364zm-1.587-8.008c-1.192 1.32-3.75 2.464-5.338 1.144a2.316 2.316 0 01-.309-3.3 6.986 6.986 0 001.456-5.5 7.212 7.212 0 00-1.941-3.871 7.143 7.143 0 015.25 1.628c1.984 1.628 2.91 4.312 2.381 6.82-.22 1.143-.75 2.243-1.5 3.08z" fill="#175FFF"/></g><defs><clipPath id="clip0_306_3406"><path fill="#fff" d="M0 0h167v70H0z"/></clipPath></defs></svg>
